X:220
T:B220-  I never saw a face till now
Q:1/4=120
L:1/4
M:3/4
K:F
cBA|d2c|fe2|d2c|\
B2A|BG2|F3|cBA|\
d2c|fe2|d2c|_e2c|\
d=B2|c3|":s:"BAG|c2A|\
FG3/2(F/4G/4)|(AB)c|(de)f|cA2|\
G3|cA(d/2c/2)|B2A|dc2|\
(fe)d|(e/2f/2)ec|de2|f3|]
